packages/templates/gallery/crop-single-1.svg

<svg class="typst-doc" viewBox="0 0 216 166" width="216pt" height="166pt" xmlns="http://www.w3.org/2000/svg" xmlns:xlink="http://www.w3.org/1999/xlink" xmlns:h5="http://www.w3.org/1999/xhtml">
    <path class="typst-shape" fill="#ffffff" fill-rule="nonzero" d="M 0 0v 166 h 216 v -166 Z "/>
    <g>
        <g class="typst-group" transform="matrix(1 0 0 1 95.5 23)">
            <g>
                <g class="typst-group">
                    <g>
                        <path class="typst-shape" fill="#eeeeee" fill-rule="nonzero" transform="matrix(1 0 0 1 11 10)" d="M 0 0v 80 h 3 v -80 Z "/>
                        <g class="typst-group" transform="matrix(1 0 0 1 4.1000000000000005 10)">
                            <g>
                                <path class="typst-shape" fill="#e6e6e6" fill-rule="nonzero" stroke="#000000" stroke-width="0.5" stroke-linecap="butt" stroke-linejoin="miter" stroke-miterlimit="4" d="M 0 0m 8.4 0 l 8.4 6 l -8.4 6 l -8.4 -6 Z "/>
                            </g>
                        </g>
                        <a transform="matrix(1 0 0 1 4.1000000000000005 10)" href="bead://heaven-col0-active0" xlink:href="bead://heaven-col0-active0">
                            <rect width="16.8" height="12" fill="transparent" stroke="none"/>
                        </a>
                        <g class="typst-group" transform="matrix(1 0 0 1 4.1000000000000005 33)">
                            <g>
                                <path class="typst-shape" fill="#000000" fill-rule="nonzero" stroke="#000000" stroke-width="0.5" stroke-linecap="butt" stroke-linejoin="miter" stroke-miterlimit="4" d="M 0 0m 8.4 0 l 8.4 6 l -8.4 6 l -8.4 -6 Z "/>
                            </g>
                        </g>
                        <a transform="matrix(1 0 0 1 4.1000000000000005 33)" href="bead://earth-col0-pos0-active1" xlink:href="bead://earth-col0-pos0-active1">
                            <rect width="16.8" height="12" fill="transparent" stroke="none"/>
                        </a>
                        <g class="typst-group" transform="matrix(1 0 0 1 4.1000000000000005 53)">
                            <g>
                                <path class="typst-shape" fill="#e6e6e6" fill-rule="nonzero" stroke="#000000" stroke-width="0.5" stroke-linecap="butt" stroke-linejoin="miter" stroke-miterlimit="4" d="M 0 0m 8.4 0 l 8.4 6 l -8.4 6 l -8.4 -6 Z "/>
                            </g>
                        </g>
                        <a transform="matrix(1 0 0 1 4.1000000000000005 53)" href="bead://earth-col0-pos1-active0" xlink:href="bead://earth-col0-pos1-active0">
                            <rect width="16.8" height="12" fill="transparent" stroke="none"/>
                        </a>
                        <g class="typst-group" transform="matrix(1 0 0 1 4.1000000000000005 65.5)">
                            <g>
                                <path class="typst-shape" fill="#e6e6e6" fill-rule="nonzero" stroke="#000000" stroke-width="0.5" stroke-linecap="butt" stroke-linejoin="miter" stroke-miterlimit="4" d="M 0 0m 8.4 0 l 8.4 6 l -8.4 6 l -8.4 -6 Z "/>
                            </g>
                        </g>
                        <a transform="matrix(1 0 0 1 4.1000000000000005 65.5)" href="bead://earth-col0-pos2-active0" xlink:href="bead://earth-col0-pos2-active0">
                            <rect width="16.8" height="12" fill="transparent" stroke="none"/>
                        </a>
                        <g class="typst-group" transform="matrix(1 0 0 1 4.1000000000000005 78)">
                            <g>
                                <path class="typst-shape" fill="#e6e6e6" fill-rule="nonzero" stroke="#000000" stroke-width="0.5" stroke-linecap="butt" stroke-linejoin="miter" stroke-miterlimit="4" d="M 0 0m 8.4 0 l 8.4 6 l -8.4 6 l -8.4 -6 Z "/>
                            </g>
                        </g>
                        <a transform="matrix(1 0 0 1 4.1000000000000005 78)" href="bead://earth-col0-pos3-active0" xlink:href="bead://earth-col0-pos3-active0">
                            <rect width="16.8" height="12" fill="transparent" stroke="none"/>
                        </a>
                        <path class="typst-shape" fill="#000000" fill-rule="nonzero" transform="matrix(1 0 0 1 0 30)" d="M 0 0v 2 h 25 v -2 Z "/>
                        <path class="typst-shape" fill="#ff4136" fill-rule="nonzero" stroke="#ff4136" stroke-width="0.5" stroke-linecap="butt" stroke-linejoin="miter" stroke-miterlimit="4" stroke-dashoffset="0" stroke-dasharray="3 3" transform="matrix(1 0 0 1 -16.8 -12)" d="M 0 0v 136.4 h 0.5 v -136.4 Z "/>
                        <path class="typst-shape" fill="#ff4136" fill-rule="nonzero" stroke="#ff4136" stroke-width="0.5" stroke-linecap="butt" stroke-linejoin="miter" stroke-miterlimit="4" stroke-dashoffset="0" stroke-dasharray="3 3" transform="matrix(1 0 0 1 41.800000000000004 -12)" d="M 0 0v 136.4 h 0.5 v -136.4 Z "/>
                        <path class="typst-shape" fill="#ff4136" fill-rule="nonzero" stroke="#ff4136" stroke-width="0.5" stroke-linecap="butt" stroke-linejoin="miter" stroke-miterlimit="4" stroke-dashoffset="0" stroke-dasharray="3 3" transform="matrix(1 0 0 1 -16.8 -12)" d="M 0 0v 0.5 h 58.6 v -0.5 Z "/>
                        <path class="typst-shape" fill="#ff4136" fill-rule="nonzero" stroke="#ff4136" stroke-width="0.5" stroke-linecap="butt" stroke-linejoin="miter" stroke-miterlimit="4" stroke-dashoffset="0" stroke-dasharray="3 3" transform="matrix(1 0 0 1 -16.8 124.39999999999999)" d="M 0 0v 0.5 h 58.6 v -0.5 Z "/>
                        <g class="typst-group">
                            <g>
                                <path class="typst-shape" fill="#ff4136" fill-rule="nonzero" transform="matrix(1 0 0 1 -16.8 29.5)" d="M 0 0v 0.1 h 0.1 v -0.1 Z "/>
                                <a transform="matrix(1 0 0 1 -16.8 29.5)" href="crop-mark://left" xlink:href="crop-mark://left">
                                    <rect width="0.1" height="0.1" fill="transparent" stroke="none"/>
                                </a>
                            </g>
                        </g>
                        <g class="typst-group">
                            <g>
                                <path class="typst-shape" fill="#ff4136" fill-rule="nonzero" transform="matrix(1 0 0 1 41.800000000000004 29.5)" d="M 0 0v 0.1 h 0.1 v -0.1 Z "/>
                                <a transform="matrix(1 0 0 1 41.800000000000004 29.5)" href="crop-mark://right" xlink:href="crop-mark://right">
                                    <rect width="0.1" height="0.1" fill="transparent" stroke="none"/>
                                </a>
                            </g>
                        </g>
                        <g class="typst-group">
                            <g>
                                <path class="typst-shape" fill="#ff4136" fill-rule="nonzero" transform="matrix(1 0 0 1 11 -12)" d="M 0 0v 0.1 h 0.1 v -0.1 Z "/>
                                <a transform="matrix(1 0 0 1 11 -12)" href="crop-mark://top" xlink:href="crop-mark://top">
                                    <rect width="0.1" height="0.1" fill="transparent" stroke="none"/>
                                </a>
                            </g>
                        </g>
                        <g class="typst-group">
                            <g>
                                <path class="typst-shape" fill="#ff4136" fill-rule="nonzero" transform="matrix(1 0 0 1 11 124.39999999999999)" d="M 0 0v 0.1 h 0.1 v -0.1 Z "/>
                                <a transform="matrix(1 0 0 1 11 124.39999999999999)" href="crop-mark://bottom" xlink:href="crop-mark://bottom">
                                    <rect width="0.1" height="0.1" fill="transparent" stroke="none"/>
                                </a>
                            </g>
                        </g>
                    </g>
                </g>
            </g>
        </g>
    </g>
</svg>

<svg class="typst-doc" viewBox="0 0 216 166" width="216pt" height="166pt" xmlns="http://www.w3.org/2000/svg" xmlns:xlink="http://www.w3.org/1999/xlink" xmlns:h5="http://www.w3.org/1999/xhtml">
    <path class="typst-shape" fill="#ffffff" fill-rule="nonzero" d="M 0 0 L 0 166 L 216 166 L 216 0 Z "/>
    <g>
        <g transform="translate(95.5 23)">
            <g class="typst-group">
                <g>
                    <g transform="translate(0 0)">
                        <g class="typst-group">
                            <g>
                                <g transform="translate(11 10)">
                                    <path class="typst-shape" fill="#eeeeee" fill-rule="nonzero" d="M 0 0 L 0 80 L 3 80 L 3 0 Z "/>
                                </g>
                                <g transform="translate(4.1000000000000005 10)">
                                    <g class="typst-group">
                                        <g>
                                            <g transform="translate(0 0)">
                                                <path class="typst-shape" fill="#e6e6e6" fill-rule="nonzero" stroke="#000000" stroke-width="0.5" stroke-linecap="butt" stroke-linejoin="miter" stroke-miterlimit="4" d="M 8.4 0 L 16.8 6 L 8.4 12 L 0 6 Z "/>
                                            </g>
                                        </g>
                                    </g>
                                </g>
                                <g transform="translate(4.1000000000000005 33)">
                                    <g class="typst-group">
                                        <g>
                                            <g transform="translate(0 0)">
                                                <path class="typst-shape" fill="#000000" fill-rule="nonzero" stroke="#000000" stroke-width="0.5" stroke-linecap="butt" stroke-linejoin="miter" stroke-miterlimit="4" d="M 8.4 0 L 16.8 6 L 8.4 12 L 0 6 Z "/>
                                            </g>
                                        </g>
                                    </g>
                                </g>
                                <g transform="translate(4.1000000000000005 53)">
                                    <g class="typst-group">
                                        <g>
                                            <g transform="translate(0 0)">
                                                <path class="typst-shape" fill="#e6e6e6" fill-rule="nonzero" stroke="#000000" stroke-width="0.5" stroke-linecap="butt" stroke-linejoin="miter" stroke-miterlimit="4" d="M 8.4 0 L 16.8 6 L 8.4 12 L 0 6 Z "/>
                                            </g>
                                        </g>
                                    </g>
                                </g>
                                <g transform="translate(4.1000000000000005 65.5)">
                                    <g class="typst-group">
                                        <g>
                                            <g transform="translate(0 0)">
                                                <path class="typst-shape" fill="#e6e6e6" fill-rule="nonzero" stroke="#000000" stroke-width="0.5" stroke-linecap="butt" stroke-linejoin="miter" stroke-miterlimit="4" d="M 8.4 0 L 16.8 6 L 8.4 12 L 0 6 Z "/>
                                            </g>
                                        </g>
                                    </g>
                                </g>
                                <g transform="translate(4.1000000000000005 78)">
                                    <g class="typst-group">
                                        <g>
                                            <g transform="translate(0 0)">
                                                <path class="typst-shape" fill="#e6e6e6" fill-rule="nonzero" stroke="#000000" stroke-width="0.5" stroke-linecap="butt" stroke-linejoin="miter" stroke-miterlimit="4" d="M 8.4 0 L 16.8 6 L 8.4 12 L 0 6 Z "/>
                                            </g>
                                        </g>
                                    </g>
                                </g>
                                <g transform="translate(0 30)">
                                    <path class="typst-shape" fill="#000000" fill-rule="nonzero" d="M 0 0 L 0 2 L 25 2 L 25 0 Z "/>
                                </g>
                                <g transform="translate(-16.8 -12)">
                                    <path class="typst-shape" fill="#ff4136" fill-rule="nonzero" stroke="#ff4136" stroke-width="0.5" stroke-linecap="butt" stroke-linejoin="miter" stroke-miterlimit="4" stroke-dashoffset="0" stroke-dasharray="3 3" d="M 0 0 L 0 136.4 L 0.5 136.4 L 0.5 0 Z "/>
                                </g>
                                <g transform="translate(41.800000000000004 -12)">
                                    <path class="typst-shape" fill="#ff4136" fill-rule="nonzero" stroke="#ff4136" stroke-width="0.5" stroke-linecap="butt" stroke-linejoin="miter" stroke-miterlimit="4" stroke-dashoffset="0" stroke-dasharray="3 3" d="M 0 0 L 0 136.4 L 0.5 136.4 L 0.5 0 Z "/>
                                </g>
                                <g transform="translate(-16.8 -12)">
                                    <path class="typst-shape" fill="#ff4136" fill-rule="nonzero" stroke="#ff4136" stroke-width="0.5" stroke-linecap="butt" stroke-linejoin="miter" stroke-miterlimit="4" stroke-dashoffset="0" stroke-dasharray="3 3" d="M 0 0 L 0 0.5 L 58.6 0.5 L 58.6 0 Z "/>
                                </g>
                                <g transform="translate(-16.8 124.39999999999999)">
                                    <path class="typst-shape" fill="#ff4136" fill-rule="nonzero" stroke="#ff4136" stroke-width="0.5" stroke-linecap="butt" stroke-linejoin="miter" stroke-miterlimit="4" stroke-dashoffset="0" stroke-dasharray="3 3" d="M 0 0 L 0 0.5 L 58.6 0.5 L 58.6 0 Z "/>
                                </g>
                                <g transform="translate(-16.8 29.5)">
                                    <path class="typst-shape" fill="#ff4136" fill-rule="nonzero" d="M 0 0 L 0 0.1 L 0.1 0.1 L 0.1 0 Z "/>
                                </g>
                                <g transform="translate(41.800000000000004 29.5)">
                                    <path class="typst-shape" fill="#ff4136" fill-rule="nonzero" d="M 0 0 L 0 0.1 L 0.1 0.1 L 0.1 0 Z "/>
                                </g>
                                <g transform="translate(11 -12)">
                                    <path class="typst-shape" fill="#ff4136" fill-rule="nonzero" d="M 0 0 L 0 0.1 L 0.1 0.1 L 0.1 0 Z "/>
                                </g>
                                <g transform="translate(11 124.39999999999999)">
                                    <path class="typst-shape" fill="#ff4136" fill-rule="nonzero" d="M 0 0 L 0 0.1 L 0.1 0.1 L 0.1 0 Z "/>
                                </g>
                            </g>
                        </g>
                    </g>
                </g>
            </g>
        </g>
    </g>
</svg>
